src/img/icons/24_7.svg

<svg width="36" height="32" viewBox="0 0 36 32" fill="none" xmlns="http://www.w3.org/2000/svg">
<g filter="url(#filter0_dii_408_1688)">
<path d="M8.54054 19.7391L8 9.56522L28 9V19.1739L26.3784 22H10.1622L8.54054 19.7391Z" fill="#FFF5EE"/>
</g>
<g filter="url(#filter1_dii_408_1688)">
<path d="M28 9H8V6L10.2222 4H24.6667L28 5.5V9Z" fill="#FFF5EE"/>
</g>
<path d="M14.3333 12H12.5C11.4889 12 10.6667 12.8223 10.6667 13.8333V15.6667C10.6667 16.6778 11.4889 17.5 12.5 17.5H14.3333C15.3444 17.5 16.1667 16.6778 16.1667 15.6667V13.8333C16.1667 12.8223 15.3444 12 14.3333 12ZM12.5 15.6667V13.8333H14.3333V15.6667H12.5ZM24.4167 2.83333H23.5V1.91667C23.5 1.41067 23.0903 1 22.5833 1C22.0764 1 21.6667 1.41067 21.6667 1.91667V2.83333H14.3333V1.91667C14.3333 1.41067 13.9236 1 13.4167 1C12.9097 1 12.5 1.41067 12.5 1.91667V2.83333H11.5833C9.05608 2.83333 7 4.88942 7 7.41667V18.4167C7 20.9439 9.05608 23 11.5833 23H24.4167C26.9439 23 29 20.9439 29 18.4167V7.41667C29 4.88942 26.9439 2.83333 24.4167 2.83333ZM11.5833 4.66667H24.4167C25.9328 4.66667 27.1667 5.9005 27.1667 7.41667V8.33333H8.83333V7.41667C8.83333 5.9005 10.0672 4.66667 11.5833 4.66667ZM24.4167 21.1667H11.5833C10.0672 21.1667 8.83333 19.9328 8.83333 18.4167V10.1667H27.1667V18.4167C27.1667 19.9328 25.9328 21.1667 24.4167 21.1667Z" fill="#FF943D"/>
<defs>
<filter id="filter0_dii_408_1688" x="0" y="5" width="36" height="29" filterUnits="userSpaceOnUse" color-interpolation-filters="sRGB">
<feFlood flood-opacity="0" result="BackgroundImageFix"/>
<feColorMatrix in="SourceAlpha" type="matrix" values="0 0 0 0 0 0 0 0 0 0 0 0 0 0 0 0 0 0 127 0" result="hardAlpha"/>
<feOffset dy="4"/>
<feGaussianBlur stdDeviation="4"/>
<feComposite in2="hardAlpha" operator="out"/>
<feColorMatrix type="matrix" values="0 0 0 0 1 0 0 0 0 0.705882 0 0 0 0 0.466667 0 0 0 0.15 0"/>
<feBlend mode="normal" in2="BackgroundImageFix" result="effect1_dropShadow_408_1688"/>
<feBlend mode="normal" in="SourceGraphic" in2="effect1_dropShadow_408_1688" result="shape"/>
<feColorMatrix in="SourceAlpha" type="matrix" values="0 0 0 0 0 0 0 0 0 0 0 0 0 0 0 0 0 0 127 0" result="hardAlpha"/>
<feOffset/>
<feGaussianBlur stdDeviation="1"/>
<feComposite in2="hardAlpha" operator="arithmetic" k2="-1" k3="1"/>
<feColorMatrix type="matrix" values="0 0 0 0 1 0 0 0 0 0.835827 0 0 0 0 0.702299 0 0 0 0.6 0"/>
<feBlend mode="normal" in2="shape" result="effect2_innerShadow_408_1688"/>
<feColorMatrix in="SourceAlpha" type="matrix" values="0 0 0 0 0 0 0 0 0 0 0 0 0 0 0 0 0 0 127 0" result="hardAlpha"/>
<feOffset dy="-2"/>
<feGaussianBlur stdDeviation="2"/>
<feComposite in2="hardAlpha" operator="arithmetic" k2="-1" k3="1"/>
<feColorMatrix type="matrix" values="0 0 0 0 1 0 0 0 0 0.607607 0 0 0 0 0.288462 0 0 0 0.25 0"/>
<feBlend mode="normal" in2="effect2_innerShadow_408_1688" result="effect3_innerShadow_408_1688"/>
</filter>
<filter id="filter1_dii_408_1688" x="0" y="0" width="36" height="21" filterUnits="userSpaceOnUse" color-interpolation-filters="sRGB">
<feFlood flood-opacity="0" result="BackgroundImageFix"/>
<feColorMatrix in="SourceAlpha" type="matrix" values="0 0 0 0 0 0 0 0 0 0 0 0 0 0 0 0 0 0 127 0" result="hardAlpha"/>
<feOffset dy="4"/>
<feGaussianBlur stdDeviation="4"/>
<feComposite in2="hardAlpha" operator="out"/>
<feColorMatrix type="matrix" values="0 0 0 0 1 0 0 0 0 0.705882 0 0 0 0 0.466667 0 0 0 0.15 0"/>
<feBlend mode="normal" in2="BackgroundImageFix" result="effect1_dropShadow_408_1688"/>
<feBlend mode="normal" in="SourceGraphic" in2="effect1_dropShadow_408_1688" result="shape"/>
<feColorMatrix in="SourceAlpha" type="matrix" values="0 0 0 0 0 0 0 0 0 0 0 0 0 0 0 0 0 0 127 0" result="hardAlpha"/>
<feOffset/>
<feGaussianBlur stdDeviation="1"/>
<feComposite in2="hardAlpha" operator="arithmetic" k2="-1" k3="1"/>
<feColorMatrix type="matrix" values="0 0 0 0 1 0 0 0 0 0.835827 0 0 0 0 0.702299 0 0 0 0.6 0"/>
<feBlend mode="normal" in2="shape" result="effect2_innerShadow_408_1688"/>
<feColorMatrix in="SourceAlpha" type="matrix" values="0 0 0 0 0 0 0 0 0 0 0 0 0 0 0 0 0 0 127 0" result="hardAlpha"/>
<feOffset dy="-2"/>
<feGaussianBlur stdDeviation="2"/>
<feComposite in2="hardAlpha" operator="arithmetic" k2="-1" k3="1"/>
<feColorMatrix type="matrix" values="0 0 0 0 1 0 0 0 0 0.607607 0 0 0 0 0.288462 0 0 0 0.25 0"/>
<feBlend mode="normal" in2="effect2_innerShadow_408_1688" result="effect3_innerShadow_408_1688"/>
</filter>
</defs>
</svg>

<svg xmlns="http://www.w3.org/2000/svg" width="36" height="32" fill="none" viewBox="0 0 36 32"><g filter="url(#filter0_dii_408_1688)"><path fill="#fff5ee" d="M8.54 19.74 8 9.564 28 9v10.174L26.378 22H10.162z"/></g><g filter="url(#filter1_dii_408_1688)"><path fill="#fff5ee" d="M28 9H8V6l2.222-2h14.445L28 5.5z"/></g><path fill="#ff943d" d="M14.333 12H12.5a1.835 1.835 0 0 0-1.833 1.833v1.834c0 1.01.822 1.833 1.833 1.833h1.833a1.835 1.835 0 0 0 1.834-1.833v-1.834A1.835 1.835 0 0 0 14.333 12M12.5 15.667v-1.834h1.833v1.834zM24.417 2.833H23.5v-.916a.916.916 0 1 0-1.833 0v.916h-7.334v-.916a.916.916 0 1 0-1.833 0v.916h-.917A4.59 4.59 0 0 0 7 7.417v11A4.59 4.59 0 0 0 11.583 23h12.834A4.59 4.59 0 0 0 29 18.417v-11a4.59 4.59 0 0 0-4.583-4.584M11.583 4.667h12.834a2.753 2.753 0 0 1 2.75 2.75v.916H8.833v-.916a2.753 2.753 0 0 1 2.75-2.75m12.834 16.5H11.583a2.753 2.753 0 0 1-2.75-2.75v-8.25h18.334v8.25a2.753 2.753 0 0 1-2.75 2.75"/><defs><filter id="filter0_dii_408_1688" width="36" height="29" x="0" y="5" color-interpolation-filters="sRGB" filterUnits="userSpaceOnUse"><feFlood flood-opacity="0" result="BackgroundImageFix"/><feColorMatrix in="SourceAlpha" result="hardAlpha" values="0 0 0 0 0 0 0 0 0 0 0 0 0 0 0 0 0 0 127 0"/><feOffset dy="4"/><feGaussianBlur stdDeviation="4"/><feComposite in2="hardAlpha" operator="out"/><feColorMatrix values="0 0 0 0 1 0 0 0 0 0.705882 0 0 0 0 0.466667 0 0 0 0.15 0"/><feBlend in2="BackgroundImageFix" result="effect1_dropShadow_408_1688"/><feBlend in="SourceGraphic" in2="effect1_dropShadow_408_1688" result="shape"/><feColorMatrix in="SourceAlpha" result="hardAlpha" values="0 0 0 0 0 0 0 0 0 0 0 0 0 0 0 0 0 0 127 0"/><feOffset/><feGaussianBlur stdDeviation="1"/><feComposite in2="hardAlpha" k2="-1" k3="1" operator="arithmetic"/><feColorMatrix values="0 0 0 0 1 0 0 0 0 0.835827 0 0 0 0 0.702299 0 0 0 0.6 0"/><feBlend in2="shape" result="effect2_innerShadow_408_1688"/><feColorMatrix in="SourceAlpha" result="hardAlpha" values="0 0 0 0 0 0 0 0 0 0 0 0 0 0 0 0 0 0 127 0"/><feOffset dy="-2"/><feGaussianBlur stdDeviation="2"/><feComposite in2="hardAlpha" k2="-1" k3="1" operator="arithmetic"/><feColorMatrix values="0 0 0 0 1 0 0 0 0 0.607607 0 0 0 0 0.288462 0 0 0 0.25 0"/><feBlend in2="effect2_innerShadow_408_1688" result="effect3_innerShadow_408_1688"/></filter><filter id="filter1_dii_408_1688" width="36" height="21" x="0" y="0" color-interpolation-filters="sRGB" filterUnits="userSpaceOnUse"><feFlood flood-opacity="0" result="BackgroundImageFix"/><feColorMatrix in="SourceAlpha" result="hardAlpha" values="0 0 0 0 0 0 0 0 0 0 0 0 0 0 0 0 0 0 127 0"/><feOffset dy="4"/><feGaussianBlur stdDeviation="4"/><feComposite in2="hardAlpha" operator="out"/><feColorMatrix values="0 0 0 0 1 0 0 0 0 0.705882 0 0 0 0 0.466667 0 0 0 0.15 0"/><feBlend in2="BackgroundImageFix" result="effect1_dropShadow_408_1688"/><feBlend in="SourceGraphic" in2="effect1_dropShadow_408_1688" result="shape"/><feColorMatrix in="SourceAlpha" result="hardAlpha" values="0 0 0 0 0 0 0 0 0 0 0 0 0 0 0 0 0 0 127 0"/><feOffset/><feGaussianBlur stdDeviation="1"/><feComposite in2="hardAlpha" k2="-1" k3="1" operator="arithmetic"/><feColorMatrix values="0 0 0 0 1 0 0 0 0 0.835827 0 0 0 0 0.702299 0 0 0 0.6 0"/><feBlend in2="shape" result="effect2_innerShadow_408_1688"/><feColorMatrix in="SourceAlpha" result="hardAlpha" values="0 0 0 0 0 0 0 0 0 0 0 0 0 0 0 0 0 0 127 0"/><feOffset dy="-2"/><feGaussianBlur stdDeviation="2"/><feComposite in2="hardAlpha" k2="-1" k3="1" operator="arithmetic"/><feColorMatrix values="0 0 0 0 1 0 0 0 0 0.607607 0 0 0 0 0.288462 0 0 0 0.25 0"/><feBlend in2="effect2_innerShadow_408_1688" result="effect3_innerShadow_408_1688"/></filter></defs></svg>
